Newaita-dark/mimetypes/64/virtualbox-vmdk.svg

<?xml version="1.0" encoding="UTF-8"?>
<svg xmlns="http://www.w3.org/2000/svg" xmlns:xlink="http://www.w3.org/1999/xlink" width="64px" height="64px" viewBox="0 0 64 64" version="1.1">
<defs>
<linearGradient id="linear0" gradientUnits="userSpaceOnUse" x1="254" y1="233.5" x2="254" y2="254.666672" gradientTransform="matrix(0.125012,0,0,0.125012,-0.00000763012,26.87757)">
<stop offset="0" style="stop-color:rgb(0%,0%,0%);stop-opacity:0.27451;"/>
<stop offset="1" style="stop-color:rgb(0%,0%,0%);stop-opacity:0;"/>
</linearGradient>
<radialGradient id="radial0" gradientUnits="userSpaceOnUse" cx="450.908936" cy="189.579361" fx="450.908936" fy="189.579361" r="21.166656" gradientTransform="matrix(0.000000348341,-0.156265,-0.281277,-0.000000203077,106.24586,127.190665)">
<stop offset="0" style="stop-color:rgb(0%,0%,0%);stop-opacity:0.313726;"/>
<stop offset="0.222222" style="stop-color:rgb(0%,0%,0%);stop-opacity:0.27451;"/>
<stop offset="1" style="stop-color:rgb(0%,0%,0%);stop-opacity:0;"/>
</radialGradient>
<radialGradient id="radial1" gradientUnits="userSpaceOnUse" cx="450.908936" cy="189.579361" fx="450.908936" fy="189.579361" r="21.166656" gradientTransform="matrix(-0.000000348341,0.156265,0.281277,0.000000203077,-42.409041,-15.054958)">
<stop offset="0" style="stop-color:rgb(0%,0%,0%);stop-opacity:0.313726;"/>
<stop offset="0.222222" style="stop-color:rgb(0%,0%,0%);stop-opacity:0.27451;"/>
<stop offset="1" style="stop-color:rgb(0%,0%,0%);stop-opacity:0;"/>
</radialGradient>
<radialGradient id="radial2" gradientUnits="userSpaceOnUse" cx="450.908936" cy="189.579361" fx="450.908936" fy="189.579361" r="21.166656" gradientTransform="matrix(-0.000000348341,-0.156265,0.281277,-0.000000203077,-42.409041,127.190665)">
<stop offset="0" style="stop-color:rgb(0%,0%,0%);stop-opacity:0.313726;"/>
<stop offset="0.222222" style="stop-color:rgb(0%,0%,0%);stop-opacity:0.27451;"/>
<stop offset="1" style="stop-color:rgb(0%,0%,0%);stop-opacity:0;"/>
</radialGradient>
<radialGradient id="radial3" gradientUnits="userSpaceOnUse" cx="450.908936" cy="189.579361" fx="450.908936" fy="189.579361" r="21.166656" gradientTransform="matrix(0.000000348341,0.156265,-0.281277,0.000000203077,106.245857,-15.054959)">
<stop offset="0" style="stop-color:rgb(0%,0%,0%);stop-opacity:0.313726;"/>
<stop offset="0.222222" style="stop-color:rgb(0%,0%,0%);stop-opacity:0.27451;"/>
<stop offset="1" style="stop-color:rgb(0%,0%,0%);stop-opacity:0;"/>
</radialGradient>
<linearGradient id="linear1" gradientUnits="userSpaceOnUse" x1="254" y1="-168.666656" x2="254" y2="233.5" gradientTransform="matrix(0.125012,0,0,0.125012,0,26.877566)">
<stop offset="0" style="stop-color:rgb(50.196081%,79.607844%,76.862746%);stop-opacity:1;"/>
<stop offset="1" style="stop-color:rgb(30.19608%,71.372551%,67.450982%);stop-opacity:1;"/>
</linearGradient>
<linearGradient id="linear2" gradientUnits="userSpaceOnUse" x1="253.130798" y1="-129.433121" x2="253.130798" y2="272.733551" gradientTransform="matrix(3.779528,0,0,3.779528,3.285154,664.314209)">
<stop offset="0" style="stop-color:rgb(73.725492%,66.666669%,64.313728%);stop-opacity:1;"/>
<stop offset="1" style="stop-color:rgb(84.313726%,80.000001%,78.431374%);stop-opacity:1;"/>
</linearGradient>
</defs>
<g id="surface1">
<path style=" stroke:none;fill-rule:nonzero;fill:rgb(0%,0%,0%);fill-opacity:0.196078;" d="M 7.9375 56.066406 C 6.472656 56.066406 5.292969 54.886719 5.292969 53.421875 L 5.292969 53.089844 C 5.292969 54.558594 6.472656 55.738281 7.9375 55.738281 L 55.566406 55.738281 C 57.035156 55.738281 58.214844 54.558594 58.214844 53.089844 L 58.214844 53.421875 C 58.214844 54.886719 57.035156 56.066406 55.566406 56.066406 Z M 7.9375 56.066406 "/>
<path style=" stroke:none;fill-rule:nonzero;fill:url(#linear0);" d="M 10.253906 56.066406 L 53.582031 56.066406 L 53.582031 58.714844 L 10.253906 58.714844 Z M 10.253906 56.066406 "/>
<path style=" stroke:none;fill-rule:nonzero;fill:url(#radial0);" d="M 53.582031 56.066406 L 58.875 56.066406 L 58.875 53.421875 L 53.582031 53.421875 Z M 53.582031 56.066406 "/>
<path style=" stroke:none;fill-rule:nonzero;fill:url(#radial1);" d="M 10.253906 56.066406 L 4.960938 56.066406 L 4.960938 58.714844 L 10.253906 58.714844 Z M 10.253906 56.066406 "/>
<path style=" stroke:none;fill-rule:nonzero;fill:url(#radial2);" d="M 10.253906 56.066406 L 4.960938 56.066406 L 4.960938 53.421875 L 10.253906 53.421875 Z M 10.253906 56.066406 "/>
<path style=" stroke:none;fill-rule:nonzero;fill:url(#radial3);" d="M 53.582031 56.066406 L 58.875 56.066406 L 58.875 58.714844 L 53.582031 58.714844 Z M 53.582031 56.066406 "/>
<path style=" stroke:none;fill-rule:nonzero;fill:url(#linear1);" d="M 7.277344 5.792969 L 56.230469 5.792969 C 57.324219 5.792969 58.214844 6.679688 58.214844 7.777344 L 58.214844 54.082031 C 58.214844 55.179688 57.324219 56.066406 56.230469 56.066406 L 7.277344 56.066406 C 6.179688 56.066406 5.292969 55.179688 5.292969 54.082031 L 5.292969 7.777344 C 5.292969 6.679688 6.179688 5.792969 7.277344 5.792969 Z M 7.277344 5.792969 "/>
<path style="fill:none;stroke-width:21.155001;stroke-linecap:butt;stroke-linejoin:miter;stroke:rgb(7.843138%,7.843138%,7.843138%);stroke-opacity:0.235294;stroke-miterlimit:4;" d="M 148.17335 85.346318 L 179.920318 85.346318 L 222.260025 169.994485 L 275.161223 21.821135 L 317.50093 117.093287 L 349.247898 43.006612 L 391.587605 138.247517 L 433.927312 138.247517 " transform="matrix(0.125012,0,0,0.125012,0,26.877566)"/>
<path style=" stroke:none;fill-rule:nonzero;fill:rgb(100%,100%,100%);fill-opacity:0.0784314;" d="M 5.292969 48.792969 L 5.292969 54.082031 C 5.292969 55.183594 6.175781 56.066406 7.277344 56.066406 L 56.230469 56.066406 C 57.328125 56.066406 58.214844 55.183594 58.214844 54.082031 L 58.214844 48.792969 Z M 5.292969 48.792969 "/>
<path style=" stroke:none;fill-rule:nonzero;fill:rgb(0%,0%,0%);fill-opacity:0.235294;" d="M 25.195312 5.792969 L 25.328125 22.964844 L 26.265625 23.902344 L 27.148438 23.019531 L 28.03125 23.902344 L 28.941406 22.992188 L 29.851562 23.902344 L 30.761719 22.992188 L 31.671875 23.902344 L 32.578125 22.992188 L 33.488281 23.902344 L 34.398438 22.992188 L 35.308594 23.902344 L 36.21875 22.992188 L 37.128906 23.902344 L 38.0625 22.964844 L 38.0625 5.792969 Z M 25.195312 5.792969 "/>
<path style="fill-rule:nonzero;fill:url(#linear2);stroke-width:11.338583;stroke-linecap:round;stroke-linejoin:round;stroke:rgb(12.941177%,12.941177%,12.941177%);stroke-opacity:1;stroke-miterlimit:4;" d="M 764.454597 175.140764 L 768.233764 666.786754 L 796.577516 695.130505 L 823.267882 668.440139 L 849.958248 695.130505 L 877.475307 667.613447 L 904.992365 695.130505 L 932.509424 667.613447 L 960.026483 695.130505 L 987.543541 667.613447 L 1014.942501 695.130505 L 1042.45956 667.613447 L 1069.976619 695.130505 L 1097.493677 667.613447 L 1125.010736 695.130505 L 1153.236389 666.786754 L 1153.236389 175.140764 Z M 764.454597 175.140764 " transform="matrix(0.0330761,0,0,0.0330761,0,0)"/>
<path style=" stroke:none;fill-rule:nonzero;fill:rgb(100%,100%,100%);fill-opacity:0.392157;" d="M 7.277344 5.792969 C 6.175781 5.792969 5.292969 6.675781 5.292969 7.777344 L 5.292969 8.4375 C 5.292969 7.339844 6.175781 6.453125 7.277344 6.453125 L 56.230469 6.453125 C 57.328125 6.453125 58.214844 7.339844 58.214844 8.4375 L 58.214844 7.777344 C 58.214844 6.675781 57.328125 5.792969 56.230469 5.792969 Z M 7.277344 5.792969 "/>
<path style=" stroke:none;fill-rule:nonzero;fill:rgb(1.960784%,1.960784%,1.960784%);fill-opacity:0.235294;" d="M 7.277344 56.066406 C 6.175781 56.066406 5.292969 55.183594 5.292969 54.082031 L 5.292969 53.421875 C 5.292969 54.519531 6.175781 55.40625 7.277344 55.40625 L 56.230469 55.40625 C 57.328125 55.40625 58.214844 54.519531 58.214844 53.421875 L 58.214844 54.082031 C 58.214844 55.183594 57.328125 56.066406 56.230469 56.066406 Z M 7.277344 56.066406 "/>
<path style=" stroke:none;fill-rule:nonzero;fill:rgb(12.941177%,12.941177%,12.941177%);fill-opacity:1;" d="M 7.277344 5.605469 C 6.078125 5.605469 5.105469 6.578125 5.105469 7.777344 L 5.105469 54.082031 C 5.105469 55.285156 6.078125 56.253906 7.277344 56.253906 L 56.230469 56.253906 C 57.429688 56.253906 58.402344 55.285156 58.402344 54.082031 L 58.402344 7.777344 C 58.402344 6.578125 57.429688 5.605469 56.230469 5.605469 Z M 7.277344 5.980469 L 56.230469 5.980469 C 57.226562 5.980469 58.027344 6.777344 58.027344 7.777344 L 58.027344 54.082031 C 58.027344 55.082031 57.226562 55.878906 56.230469 55.878906 L 7.277344 55.878906 C 6.277344 55.878906 5.480469 55.082031 5.480469 54.082031 L 5.480469 7.777344 C 5.480469 6.777344 6.277344 5.980469 7.277344 5.980469 Z M 7.277344 5.980469 "/>
<path style=" stroke:none;fill-rule:nonzero;fill:rgb(0%,0%,0%);fill-opacity:0.235294;" d="M 12.570312 8.4375 L 9.261719 12.40625 L 11.246094 12.40625 L 11.246094 17.699219 L 13.890625 17.699219 L 13.890625 12.40625 L 15.875 12.40625 Z M 12.570312 8.4375 "/>
<path style=" stroke:none;fill-rule:nonzero;fill:rgb(0%,0%,0%);fill-opacity:0.235294;" d="M 19.183594 8.4375 L 15.875 12.40625 L 17.859375 12.40625 L 17.859375 17.699219 L 20.507812 17.699219 L 20.507812 12.40625 L 22.492188 12.40625 Z M 19.183594 8.4375 "/>
<path style=" stroke:none;fill-rule:nonzero;fill:rgb(0%,0%,0%);fill-opacity:0.235294;" d="M 9.921875 19.023438 L 21.832031 19.023438 L 21.832031 20.34375 L 9.921875 20.34375 Z M 9.921875 19.023438 "/>
<path style=" stroke:none;fill-rule:nonzero;fill:rgb(25.490198%,25.490198%,25.490198%);fill-opacity:0.0784314;" d="M 7.277344 5.792969 C 6.175781 5.792969 5.292969 6.675781 5.292969 7.777344 L 5.292969 11.085938 L 58.214844 11.085938 L 58.214844 7.777344 C 58.214844 6.675781 57.328125 5.792969 56.230469 5.792969 Z M 7.277344 5.792969 "/>
</g>
</svg>

<svg xmlns="http://www.w3.org/2000/svg" width="64pt" height="64pt" viewBox="0 0 64 64"><defs><linearGradient id="a" gradientUnits="userSpaceOnUse" x1="254" y1="233.5" x2="254" y2="254.667" gradientTransform="translate(0 26.878) scale(.12501)"><stop offset="0" stop-opacity=".275"/><stop offset="1" stop-opacity="0"/></linearGradient><radialGradient id="b" gradientUnits="userSpaceOnUse" cx="450.909" cy="189.579" fx="450.909" fy="189.579" r="21.167" gradientTransform="matrix(0 -.15626 -.28128 0 106.246 127.19)"><stop offset="0" stop-opacity=".314"/><stop offset=".222" stop-opacity=".275"/><stop offset="1" stop-opacity="0"/></radialGradient><radialGradient id="c" gradientUnits="userSpaceOnUse" cx="450.909" cy="189.579" fx="450.909" fy="189.579" r="21.167" gradientTransform="matrix(0 .15626 .28128 0 -42.409 -15.055)"><stop offset="0" stop-opacity=".314"/><stop offset=".222" stop-opacity=".275"/><stop offset="1" stop-opacity="0"/></radialGradient><radialGradient id="d" gradientUnits="userSpaceOnUse" cx="450.909" cy="189.579" fx="450.909" fy="189.579" r="21.167" gradientTransform="matrix(0 -.15626 .28128 0 -42.409 127.19)"><stop offset="0" stop-opacity=".314"/><stop offset=".222" stop-opacity=".275"/><stop offset="1" stop-opacity="0"/></radialGradient><radialGradient id="e" gradientUnits="userSpaceOnUse" cx="450.909" cy="189.579" fx="450.909" fy="189.579" r="21.167" gradientTransform="matrix(0 .15626 -.28128 0 106.246 -15.055)"><stop offset="0" stop-opacity=".314"/><stop offset=".222" stop-opacity=".275"/><stop offset="1" stop-opacity="0"/></radialGradient><linearGradient id="f" gradientUnits="userSpaceOnUse" x1="254" y1="-168.667" x2="254" y2="233.5" gradientTransform="translate(0 26.878) scale(.12501)"><stop offset="0" stop-color="#80cbc4"/><stop offset="1" stop-color="#4db6ac"/></linearGradient><linearGradient id="g" gradientUnits="userSpaceOnUse" x1="253.131" y1="-129.433" x2="253.131" y2="272.734" gradientTransform="matrix(3.77953 0 0 3.77953 3.285 664.314)"><stop offset="0" stop-color="#bcaaa4"/><stop offset="1" stop-color="#d7ccc8"/></linearGradient></defs><path d="M7.938 56.066a2.639 2.639 0 0 1-2.645-2.644v-.332a2.64 2.64 0 0 0 2.644 2.648h47.63a2.64 2.64 0 0 0 2.648-2.648v.332a2.64 2.64 0 0 1-2.649 2.644zm0 0" fill-opacity=".196"/><path d="M10.254 56.066h43.328v2.649H10.254zm0 0" fill="url(#a)"/><path d="M53.582 56.066h5.293v-2.644h-5.293zm0 0" fill="url(#b)"/><path d="M10.254 56.066H4.96v2.649h5.293zm0 0" fill="url(#c)"/><path d="M10.254 56.066H4.96v-2.644h5.293zm0 0" fill="url(#d)"/><path d="M53.582 56.066h5.293v2.649h-5.293zm0 0" fill="url(#e)"/><path d="M7.277 5.793H56.23c1.094 0 1.985.887 1.985 1.984v46.305c0 1.098-.89 1.984-1.985 1.984H7.277a1.982 1.982 0 0 1-1.984-1.984V7.777c0-1.097.887-1.984 1.984-1.984zm0 0" fill="url(#f)"/><path d="M18.523 37.547h3.97l5.292 10.582 6.613-18.524 5.293 11.91 3.97-9.261 5.292 11.906h5.293" fill="none" stroke-width="2.6445865500000005" stroke="#141414" stroke-opacity=".235"/><path d="M5.293 48.793v5.289c0 1.102.883 1.984 1.984 1.984H56.23a1.98 1.98 0 0 0 1.985-1.984v-5.289zm0 0" fill="#fff" fill-opacity=".078"/><path d="M25.195 5.793l.133 17.172.938.937.882-.882.883.882.91-.91.91.91.91-.91.91.91.907-.91.91.91.91-.91.91.91.91-.91.91.91.934-.937V5.793zm0 0" fill-opacity=".235"/><path d="M764.455 175.14l3.779 491.647 28.344 28.344 26.69-26.69 26.69 26.69 27.517-27.518 27.517 27.518 27.517-27.518 27.517 27.518 27.518-27.518 27.399 27.518 27.517-27.518 27.517 27.518 27.517-27.518 27.517 27.518 28.225-28.344V175.14zm0 0" transform="scale(.03308)" fill="url(#g)" stroke-width="11.339" stroke-linecap="round" stroke-linejoin="round" stroke="#212121"/><path d="M7.277 5.793a1.977 1.977 0 0 0-1.984 1.984v.66a1.98 1.98 0 0 1 1.984-1.984H56.23c1.098 0 1.985.887 1.985 1.984v-.66a1.98 1.98 0 0 0-1.985-1.984zm0 0" fill="#fff" fill-opacity=".392"/><path d="M7.277 56.066a1.977 1.977 0 0 1-1.984-1.984v-.66a1.98 1.98 0 0 0 1.984 1.984H56.23a1.982 1.982 0 0 0 1.985-1.984v.66a1.98 1.98 0 0 1-1.985 1.984zm0 0" fill="#050505" fill-opacity=".235"/><path d="M7.277 5.605c-1.199 0-2.172.973-2.172 2.172v46.305a2.17 2.17 0 0 0 2.172 2.172H56.23a2.17 2.17 0 0 0 2.172-2.172V7.777c0-1.199-.972-2.172-2.172-2.172zm0 .375H56.23a1.79 1.79 0 0 1 1.797 1.797v46.305c0 1-.8 1.797-1.797 1.797H7.277c-1 0-1.797-.797-1.797-1.797V7.777c0-1 .797-1.797 1.797-1.797zm0 0" fill="#212121"/><path d="M12.57 8.438l-3.308 3.968h1.984V17.7h2.645v-5.293h1.984zm0 0M19.184 8.438l-3.309 3.968h1.984V17.7h2.649v-5.293h1.984zm0 0M9.922 19.023h11.91v1.32H9.922zm0 0" fill-opacity=".235"/><path d="M7.277 5.793a1.977 1.977 0 0 0-1.984 1.984v3.309h52.922V7.777a1.98 1.98 0 0 0-1.985-1.984zm0 0" fill="#414141" fill-opacity=".078"/></svg>
